app/assets/images/Contenido/Facebook.svg

<svg fill="none" height="80" viewBox="0 0 80 80" width="80" xmlns="http://www.w3.org/2000/svg"><path d="m80 40.1003c0-22.1354-17.92-40.1003-40-40.1003s-40 17.9649-40 40.1003c0 19.4085 13.76 35.5689 32 39.2982v-27.2682h-8v-12.03h8v-10.0251c0-7.7394 6.28-14.0351 14-14.0351h10v12.0301h-8c-2.2 0-4 1.8045-4 4.01v8.0201h12v12.03h-12v27.8697c20.2-2.005 36-19.0877 36-39.8997z" fill="#3d5b97"/></svg>

<svg width="80" height="80" viewBox="0 0 80 80" fill="none" xmlns="http://www.w3.org/2000/svg">
<path d="M80 40.1003C80 17.9649 62.08 0 40 0C17.92 0 0 17.9649 0 40.1003C0 59.5088 13.76 75.6692 32 79.3985V52.1303H24V40.1003H32V30.0752C32 22.3358 38.28 16.0401 46 16.0401H56V28.0702H48C45.8 28.0702 44 29.8747 44 32.0802V40.1003H56V52.1303H44V80C64.2 77.995 80 60.9123 80 40.1003Z" fill="#3D5B97"/>
</svg>
